X: 27747
T: Morning Star, The
R: reel
M: 4/4
K: Dmajor
.B.B.BA BGEF|G2 (3Bcd edge|dBAc BGEF|GBAF G3A|
BA A2 BGEF|G2 (3Bcd edge|dBAc BGEF|GBAF G3A||
(3Bcd ef g2 eg|fedf eBBA|(3Bcd ef g2 eg|fedf e3d|
(3Bcd ef gbeg|fedf eBBA|(3Bcd ef g2 bg|faaf gfed||
B3A BGEF|G2 (3Bcd edge|dBAc BGEF|GBAF G3A|
DGBd BGEF|G2 (3Bcd edge|dBAc BGEF|GBAF G3A||
(3Bcd ef g4|fedf eBBA|(3Bcd ef gfeg|fedf e3d|
(3Bcd ef gbeg|fedf eBBA|(3Bcd ef g2 bg|faaf gfed||

